X:23
T:Trip to Epping. JJo8.023, A
%%VWML:JohnsonVol8-2184-p12-0
F:http://www.vwml.org/record/JohnsonVol8/2184/p12
Z:Transcribed by Simon Furey and Lewis Jones
Z:vmp.Simon Wilson 2013 www.village-music-project.org.uk
Z:Dance added by John Chambers 2017
M:6/8
L:1/8
%Q:3/8=120
K:Bb
F |\
B3  B2c | dfd  B2F | c3     c2d | ege c2B |\
Acf afc | d2f =egb | agf {a}Tg3 | f3  F2 :|
|: f |\
fg_a gfe | dc=B c3  | efg    fed | cBA B2F |\
BFB  cFc | Td3  efg | fed {d}Tc3 | B3 B,3 :|
W: Cast off and cross over .|. Lead up
W:to the top cross over :||. hands 4
W:at Bottom :||. Right and Left
W:at top :||:
W:
T:Nothing Like a Good Thing. JJo8.024
B:J.Johnson Choice Collection Vol 8 1758
Z:vmp.Simon Wilson 2013 www.village-music-project.org.uk
Z:Dance added by John Chambers 2017
M:6/8
L:1/8
%Q:3/8=120
K:A
|: E |\
A3A,2C | E2Ac2e | d3B,2d | cBcA2E |\
FEF GFG | A2cB2d | cea aec | {c}B3-B2 :|
|: (B/4c/4^d/4) |\
eBGE3 | F2AG2B | Ace cea | edc TB2A |\
GBd cea | aecd2f | edcTB3 | A3A2 :|
W: Foot it and half Right and Left .|.
W:the same back again :| Cross over
W:two Cu. :|| Cast up turn your Partner
W::||: turn Corners :||. Lead out
W:sides turn your Partners :||:
W:
